src/lib/packages/icons/src/assets/filled/delete-right.svg

<svg width="24" height="24" viewBox="0 0 24 24" fill="none" xmlns="http://www.w3.org/2000/svg">
<path d="M20.561 10.939L16.061 6.439C15.78 6.158 15.398 6 15 6H6C4 6 3 7 3 9V15C3 17 4 18 6 18H15C15.398 18 15.779 17.842 16.061 17.561L20.561 13.061C21.146 12.475 21.146 11.525 20.561 10.939ZM12.53 13.47C12.823 13.763 12.823 14.238 12.53 14.531C12.384 14.677 12.192 14.751 12 14.751C11.808 14.751 11.616 14.678 11.47 14.531L10 13.061L8.53003 14.531C8.38403 14.677 8.192 14.751 8 14.751C7.808 14.751 7.61597 14.678 7.46997 14.531C7.17697 14.238 7.17697 13.763 7.46997 13.47L8.93994 12L7.46997 10.53C7.17697 10.237 7.17697 9.76199 7.46997 9.46899C7.76297 9.17599 8.23801 9.17599 8.53101 9.46899L10.001 10.939L11.4709 9.46899C11.7639 9.17599 12.239 9.17599 12.532 9.46899C12.825 9.76199 12.825 10.237 12.532 10.53L11.062 12L12.53 13.47Z" fill="currentColor"/>
</svg>

<svg xmlns="http://www.w3.org/2000/svg" width="24" height="24" fill="none"><path fill="currentColor" d="m20.561 10.939-4.5-4.5A1.5 1.5 0 0 0 15 6H6C4 6 3 7 3 9v6c0 2 1 3 3 3h9c.398 0 .779-.158 1.061-.439l4.5-4.5a1.502 1.502 0 0 0 0-2.122ZM12.53 13.47a.75.75 0 0 1-1.06 1.061L10 13.061l-1.47 1.47a.748.748 0 0 1-1.06 0 .75.75 0 0 1 0-1.061L8.94 12l-1.47-1.47a.75.75 0 1 1 1.061-1.061l1.47 1.47 1.47-1.47a.75.75 0 0 1 1.061 1.061L11.062 12l1.468 1.47Z"/></svg>
